X:1
T:O wunderschön ist Gottes Erde!
T:Ludwig Hölty
T:Andreas Romberg
T:O wunderschön ist Gottes Erde!
T:CPDL - Creative Commons Attribution Non Commercial 3.0
T:CPDL - Creative Commons Attribution Non Commercial 3.0
T:CPDL - Creative Commons Attribution Non Commercial 3.0
T:CPDL - Creative Commons Attribution Non Commercial 3.0
C:Andreas Romberg
Z:Ludwig Hölty
Z:CPDL - Creative Commons Attribution Non Commercial 3.0
%%score [ ( 1 2 ) 3 4 ]
L:1/8
Q:1/4=80
M:4/4
K:Eb
V:1 treble nm="Sopran\nAlt"
V:2 treble 
V:3 treble-8 nm="Tenor"
V:4 bass nm="Bass"
V:1
"^Langsam"!p! B2 | E4 F4 | G4 z2 G2 | (A4 G2) F2 | E4 !breath!D2 z2 |!<(! z2 B2 c2 d2!<)! | %6
w: ||* ist|Got- * tes|Er- de,|und wert, da-|
!f! e2 g2 !breath!f2 ec | (B4 d2 c>)B |1 B4 z2 :|2 B4 z4 || z4 z2 z!f! B | c2 G2 c2 B2 | %12
w: rauf ver- gnügt, ver- *|gnügt _ _ zu|sein!||Drum|will ich, bis ich|
 A4- AG A=A | B2 F2 z Bcd | e2"^cresc." e2 =A4 | B2!p! z2 z4 | z8 | z2!p! B2 e3 e | %18
w: A- * * sche *|wer- de, bis * ich|A- sche wer-|de,||mich die- ser|
!<(! d3 d!<)! f3 A | G2!f! e2 d2 _d2 | _dc BA G2 F2 | E4 z2!p! E2 | c6 c2 | B4 z2!f! E2 | %24
w: ||schö- * nen _ Er- de|freun! O|wun- der-|schön ist|
 (e4 d2) c2 | c2 B2 z4 | z8 | z2 B2 e3!<(! e | d3 d!<)! f3 A | G2!f! e2 d2 _d2 | dc BA G2 F2 | %31
w: Got- * tes|Er- de!||mich die- ser||||
!p! (B2 ed c!breath!B) AG | F6!<(! c2 | d2 e2 f2!<)! d2 | (e2 gf e!breath!d) cB | B6 cd | %36
w: |||||
!f! e2 c2 B2 D2 | E4 z2 |] %38
w: ||
V:2
 B,2 | B,4 D4 | E4 z4 | E2 F2 E2 C2 | B,4 B,2 B,2 | E4 A4 | G2 E2 F2 G2 | F4 E4 |1 D4 x2 :|2 %9
w: O|wun- der-|schön,|schön ist Got- tes|Er- de, und|wert, da-|rauf ver- gnügt, ver-|gnügt zu|sein!|
 D4 x4 || x8 | z4 z2 z!f! C | F2 C2 F2 E2 | D6 EF | (E4 EF_GE) | D2 B2 _A=G FE | A2 F2 D2 B,2 | %17
w: sein!||Drum|will ich, bis ich|A- sche *|wer- * * * *|de, mich die- * ser *|schö- nen Er- de|
 E2 E2 E2 FG | F3 F A3 D | E2 G2 A2 B2 | BA GF E2 =D2 | E4 x2 E2 | A4 A4 | G4 x2 E2 | E6 A2 | %25
w: freun, mich die- ser _|schö- nen Er- de|freun, mich die- ser|schö- * nen _ Er- de|freun! O|wun- der-|schön ist|Got- tes|
 A2 GB AG FE | A2 F2 D2 B,2 | E2 EE E2 FG | F3 F A3 D | E2 G2 A2 B2 | BA GF E2 =D2 | E4 z2 E2 | %32
w: Er- de! Drum will * ich, *|bis ich A- sche|wer- de, mich die- ser _|schö- nen Er- de|freun, mich die- ser|schö- * nen _ Er- de|freun, mich|
 (E2 cB AG) FE | F2 E2 A2 F2 | G4 z2 E2 | FED(C B,2) EF | E2 A2 G2 F2 | E4 x2 |] %38
w: die- * * * * ser *|schö- nen Er- de|freun, mich|die- * * * * ser _|schö- nen Er- de|freun!|
V:3
!p! B2 | G4 B4 | e4 z2 B2 | (c2 B4) A2 | G4 !breath!F2 B2 |"^cresc." B4 A4 | %6
w: O|wun- der-|schön ist|Got- * tes|Er- de, und|wert, da-|
!f! B2 B2 !breath!B2 Be | d4 =A4 |1 B4 z2 :|2 B4 z2 z!f! B || e2 B2 e2 _d2 | (c4 c=E) FG | %12
w: rauf ver- gnügt, ver- *|gnügt zu|sein!|sein! Drum|will ich, bis ich|A- * * sche *|
 (F2 A2) c2 c2 | B3 B B2 B2 | BA"^cresc." GF E4 | F2 z!p! B, E2 G2 | F2 D2 B3 A | G2 G2 B2 B2 | %18
w: wer- * de, drum|will ich, bis ich|A- * sche * wer-|de, mich die- ser|schö- nen Er- de|freun, mich die- ser|
!<(! B3 B!<)! B3 B | B2!f! B2 B2 e2 | e3 c B2 B2 | G4 z4 | z2!p! A2 c2 d2 | e4 z2!f! e2 | e3 e e4 | %25
w: schö- nen Er- de|freun, mich die- ser|||O wun- der-|schön ist|Got- tes Er-|
 e2 z B, E2 G2 | F2 D2 B3 A | G2 GG B2 B2 | B3 B B3 B | B2!f! B2 B2 e2 | e3 c B2 B2 |!p! B4 z2 B2 | %32
w: de! Drum will ich,|bis ich A- sche|wer- de, mich die- ser|schö- nen Er- de|freun, mich die- ser|schö- nen Er- de|freun, mich|
 c4!<(! F4 | B2 B2 c2!<)! B2 | B4 z2 G2 | AGF(E D2) B2 |!f! Be e2 e2 B2 | G4 z2 |] %38
w: die- ser|schö- nen Er- de|freun, mich|die- * * * * ser|schö- * nen Er- de|freun!|
V:4
 z2 | z8 | z2!p! B,2 G,2 E,2 | C,2 D,2 E,2 A,,2 | B,,4 !breath!B,,2 B,,2 |"^cresc." G,4 F,4 | %6
w: ||O wun- der-|schön ist Got- tes|Er- de, *||
!f! E,2 E,2 !breath!D,2 E,2 | F,4 F,4 |1 B,,4 z2 :|2 B,,4 z4 ||!f! G,4 G,2 F,2 | %11
w: ||||Drum will ich,|
 =E,3 E, E,C, D,E, | F,4 F,2 z F, | B,2 B,,2 B,2 A,2 | G,F,"^cresc." E,D, C,4 | B,,2 z2 z4 | z8 | %17
w: bis ich A- * sche *|wer- de, drum|will ich, * *||||
 z2!p! B,2 A,G, F,E, |!<(! A,2 F,2!<)! D,2 B,,2 | E,2!f! E,2 F,2 G,2 | A,3 A, B,2 B,,2 | E,4 z4 | %22
w: mich die- * ser _|_ _ _ _||schö- nen Er- de|freun!|
 z8 |!<(! E,2 G,2!<)! B,2 E,2 | (C4 B,2) A,2 | E,2 E,2 z4 | z8 | z2 B,2 A,G, F,E, | %28
w: |wun- der- schön ist|Got- * tes|Er- de!||mich die- * ser _|
 A,2 F,2 D,2 B,,2 | E,2!f! E,2 F,2 G,2 | A,3 A, B,2 A,2 |!p! G,4 z2 E,2 | A,6!<(! A,2 | %33
w: schö- nen Er- de|freun, mich die- ser|schö- nen Er- de|freun, mich|die- ser|
 A,2 G,2 F,2!<)! B,2 | E,4 z4 | z2 B,,2 F,2 A,2 |!f! G,2 A,2 B,2 B,,2 | E,4 z2 |] %38
w: schö- nen Er- de|freun,|mich die- ser|schö- nen Er- de|freun!|

